X:1
T:Title
%%score ( 1 2 ) ( 3 4 )
L:1/8
Q:1/4=103
M:6/8
K:D
V:1 treble nm="Grand Piano, Soprano"
V:2 treble 
V:3 bass nm="Choir Pad, The Healing Touch"
V:4 bass 
V:1
 D [DF]2 [DF] [DF]2 | [CE] [DF]2 [EG] [FA]2 | [GB] [FA]2 [DF]FE | [A,D] [CE]2- [CE]2- [CE]/ z/ | %4
w: By~William~James~Kirkpatrick * * *||||
 [CA] [DF]2 [DF] [DF]2 | [CE] [DF]2 [CG] [DA]2 | [DA]Bc [Fd] [Ec]2 | [DB] [CA]2- [CA]2- [CA]/ z/ | %8
w: ||||
 z [Fd]2 [Fd] [Fd]2 | [Fd][=Fd][Fc] [FB] [^FA]2 | [DF][GB][GB] [FA] [Fd]2 | %11
w: |||
 [DF] [CE]2- [CE]2- [CE]/ z/ | [CA] [DF]2 [DF][DF][A,E] | [A,D] [FA]2 [FA][FA][=F^G] | %14
w: |||
 [FA] [GB]2 [GB]cB | [Gc] [Fd]2- [Fd]3- | [Fd]3 z3 |] %17
w: |||
V:2
 x6 | x6 | z3 z A,2 | x6 | x6 | x6 | z F2 z3 | x6 | x6 | x6 | x6 | x6 | x6 | x6 | z3 z G2 | x6 | %16
 x6 |] %17
V:3
 [D,F,] [D,A,]2 [D,A,] [D,A,]2 | [G,A,] [F,A,]2 [E,A,] [D,A,]2 | [D,D] [D,D]2 [D,A,]A,G, | %3
 [D,F,] [A,,A,]2- [A,,A,]2- [A,,A,]/ z/ | [A,,A,] [D,A,]2 [D,A,] [D,A,]2 | %5
 [A,,A,] [D,A,]2 [E,A,] [F,A,]2 | [F,A,] [D,A,]2 [D,A,] [E,A,]2 | %7
 [E,^G,] [A,,A,]2- [A,,A,]2- [A,,A,]/ z/ | z [D,A,]2 [D,A,] [D,A,]2 | %9
 [D,A,][D,B,][D,A,] [D,^G,] [D,A,]2 | [D,A,][D,D][D,D] [D,D] [D,A,]2 | %11
 [D,A,] [A,,A,]2- [A,,A,]2- [A,,A,]/ z/ | [A,,A,] [D,A,]2 [D,A,][D,A,][D,G,] | %13
 [D,F,] [D,D]2 [D,D][D,D][D,D] | [D,D] [G,D]2 [G,D] A,2 | [A,,A,] [D,A,]2- [D,A,]3- | [D,A,]3 z3 |] %17
V:4
 x6 | x6 | z3 z D,2 | x6 | x6 | x6 | x6 | x6 | x6 | x6 | x6 | x6 | x6 | x6 | x6 | x6 | x6 |] %17

